optimized/24/outline/picture-product.svg

<svg viewBox="0 0 24 24" xmlns="http://www.w3.org/2000/svg" fill="currentColor" data-slot="icon">
  <g clip-path="url(#clip0_2208_12281)">
    <path d="M1 2.125C0.585786 2.125 0.25 2.46079 0.25 2.875C0.25 3.28921 0.585786 3.625 1 3.625H4.45082L7.03665 15.4195C7.1657 16.0522 7.51496 16.6182 8.0212 17.0202C8.52704 17.422 9.15792 17.6351 9.80413 17.6246H19.6428C20.289 17.6351 20.9199 17.422 21.4257 17.0202C21.9338 16.6167 22.2838 16.0481 22.4117 15.4127L22.4152 15.3941C22.4166 15.3859 22.4179 15.3776 22.4191 15.3694L23.7427 5.97961C23.773 5.76456 23.7086 5.54693 23.5661 5.38299C23.4237 5.21906 23.2172 5.12492 23 5.12492H6.31529L5.7868 2.71438C5.71135 2.37024 5.40652 2.125 5.0542 2.125H1ZM8.50311 15.1041L6.64415 6.62492H22.1369L21.2317 13.0461L19.5303 11.3447C19.2374 11.0518 18.7626 11.0518 18.4697 11.3447L17 12.8143L13.5303 9.34467C13.3714 9.18579 13.1497 9.10651 12.9261 9.12865C12.7025 9.15079 12.5006 9.27202 12.376 9.45897L8.5325 15.2241C8.522 15.1888 8.51307 15.1529 8.50576 15.1167L8.50311 15.1041ZM9.73485 16.1248L13.1166 11.0522L16.4697 14.4053C16.7626 14.6982 17.2374 14.6982 17.5303 14.4053L19 12.9357L20.9697 14.9053L20.9372 15.1356C20.8767 15.4134 20.7208 15.6646 20.4928 15.8456C20.2595 16.031 19.9659 16.1305 19.6635 16.1248L19.6493 16.1246H9.79762L9.78344 16.1248C9.76721 16.1251 9.75101 16.1251 9.73485 16.1248Z"/>
    <path d="M11 20.375C11 21.2034 10.3284 21.875 9.5 21.875C8.67157 21.875 8 21.2034 8 20.375C8 19.5466 8.67157 18.875 9.5 18.875C10.3284 18.875 11 19.5466 11 20.375Z"/>
    <path d="M19.5 21.875C20.3284 21.875 21 21.2034 21 20.375C21 19.5466 20.3284 18.875 19.5 18.875C18.6716 18.875 18 19.5466 18 20.375C18 21.2034 18.6716 21.875 19.5 21.875Z"/>
  </g>
  <defs>
    <clipPath id="clip0_2208_12281">
      <rect width="24" height="24"/>
    </clipPath>
  </defs>
</svg>

<svg xmlns="http://www.w3.org/2000/svg" viewBox="0 0 24 24" fill="currentColor" data-slot="icon">
  <g clip-path="url(#a)">
    <path d="M1 2.125a.75.75 0 0 0 0 1.5h3.45l2.587 11.794c.129.633.478 1.2.984 1.601a2.794 2.794 0 0 0 1.783.605h9.839a2.794 2.794 0 0 0 1.783-.605c.508-.403.858-.972.986-1.607l.003-.019.004-.025 1.324-9.39A.75.75 0 0 0 23 5.126H6.315l-.528-2.41a.75.75 0 0 0-.733-.59H1Zm7.503 12.98-1.859-8.48h15.493l-.905 6.421-1.702-1.701a.75.75 0 0 0-1.06 0L17 12.815l-3.47-3.47a.75.75 0 0 0-1.154.114l-3.843 5.765a1.233 1.233 0 0 1-.027-.107l-.003-.013Zm1.232 1.02 3.382-5.073 3.353 3.353a.75.75 0 0 0 1.06 0l1.47-1.47 1.97 1.97-.033.23c-.06.278-.216.53-.444.71a1.294 1.294 0 0 1-.83.28H9.735Z"/>
    <path d="M11 20.375a1.5 1.5 0 1 1-3 0 1.5 1.5 0 0 1 3 0Z"/>
    <path d="M19.5 21.875a1.5 1.5 0 1 0 0-3 1.5 1.5 0 0 0 0 3Z"/>
  </g>
  <defs>
    <clipPath id="a">
      <rect width="24" height="24"/>
    </clipPath>
  </defs>
</svg>
